polaris-icons/icons/new-icons/BugMajor.svg

<svg width="20" height="20" viewBox="0 0 20 20" fill="none" xmlns="http://www.w3.org/2000/svg">
<path fill-rule="evenodd" clip-rule="evenodd" d="M13.2803 3.96967C13.5732 4.26256 13.5732 4.73744 13.2803 5.03033L12.4867 5.82397C12.887 6.29921 13.1536 6.89081 13.2285 7.54078C13.5779 7.61401 13.8922 7.78237 14.1433 8.01752L15.3 7.15C15.6314 6.90147 16.1015 6.96863 16.35 7.3C16.5985 7.63137 16.5314 8.10147 16.2 8.35L14.75 9.4375V10.75H16.25C16.6642 10.75 17 11.0858 17 11.5C17 11.9142 16.6642 12.25 16.25 12.25H14.6446C14.5708 12.5943 14.4597 12.9247 14.3158 13.2368L16.2 14.65C16.5314 14.8985 16.5985 15.3686 16.35 15.7C16.1015 16.0314 15.6314 16.0985 15.3 15.85L13.4789 14.4842C12.6116 15.4167 11.3739 16 10 16C8.62607 16 7.38839 15.4167 6.5211 14.4842L4.7 15.85C4.36863 16.0985 3.89853 16.0314 3.65 15.7C3.40147 15.3686 3.46863 14.8985 3.8 14.65L5.68423 13.2368C5.54029 12.9247 5.42921 12.5943 5.35545 12.25H3.75C3.33579 12.25 3 11.9142 3 11.5C3 11.0858 3.33579 10.75 3.75 10.75H5.25V9.4375L3.8 8.35C3.46863 8.10147 3.40147 7.63137 3.65 7.3C3.89853 6.96863 4.36863 6.90147 4.7 7.15L5.85669 8.01752C6.10775 7.78237 6.42214 7.61401 6.7715 7.54078C6.84636 6.89081 7.11296 6.29921 7.51331 5.82397L6.71967 5.03033C6.42678 4.73744 6.42678 4.26256 6.71967 3.96967C7.01256 3.67678 7.48744 3.67678 7.78033 3.96967L8.73339 4.92273C9.12263 4.75785 9.55067 4.66667 10 4.66667C10.4493 4.66667 10.8774 4.75785 11.2666 4.92273L12.2197 3.96967C12.5126 3.67678 12.9874 3.67678 13.2803 3.96967ZM6.75 10.75V11.25C6.75 12.7868 7.81665 14.0745 9.25 14.413V9H7.16667C6.93655 9 6.75 9.18655 6.75 9.41667V10.75ZM13.25 9.41667V10.75V11.25C13.25 12.7868 12.1834 14.0745 10.75 14.413V9H12.8333C13.0635 9 13.25 9.18655 13.25 9.41667ZM10 6.16667C10.8229 6.16667 11.5132 6.73467 11.7001 7.5H8.29991C8.48683 6.73467 9.17708 6.16667 10 6.16667Z" fill="#4A4A4A"/>
</svg>

<svg viewBox="0 0 20 20" xmlns="http://www.w3.org/2000/svg"><path fill-rule="evenodd" d="M13.28 3.97a.75.75 0 0 1 0 1.06l-.793.794c.4.475.667 1.067.742 1.717.349.073.663.241.914.477l1.157-.868a.75.75 0 1 1 .9 1.2l-1.45 1.088v1.312h1.5a.75.75 0 0 1 0 1.5h-1.605a4.717 4.717 0 0 1-.33.987l1.885 1.413a.75.75 0 1 1-.9 1.2l-1.821-1.366a4.737 4.737 0 0 1-3.479 1.516 4.737 4.737 0 0 1-3.479-1.516l-1.821 1.366a.75.75 0 1 1-.9-1.2l1.884-1.413a4.712 4.712 0 0 1-.329-.987h-1.605a.75.75 0 0 1 0-1.5h1.5v-1.313l-1.45-1.087a.75.75 0 1 1 .9-1.2l1.157.868c.25-.236.565-.404.914-.477.075-.65.342-1.242.742-1.717l-.793-.794a.75.75 0 0 1 1.06-1.06l.953.953a3.24 3.24 0 0 1 1.267-.256c.45 0 .877.09 1.267.256l.953-.953a.75.75 0 0 1 1.06 0Zm-6.53 6.78v.5a3.251 3.251 0 0 0 2.5 3.163v-5.413h-2.083a.417.417 0 0 0-.417.417v1.333Zm6.5-1.333v1.833a3.251 3.251 0 0 1-2.5 3.163v-5.413h2.083c.23 0 .417.187.417.417Zm-3.25-3.25a1.75 1.75 0 0 1 1.7 1.333h-3.4a1.75 1.75 0 0 1 1.7-1.333Z" fill="#5C5F62"/></svg>
